icons/outline/filter-spark.svg

<svg width="24" height="24" viewBox="0 0 24 24" fill="none" xmlns="http://www.w3.org/2000/svg">
<path d="M15 12.5V12L19.414 7.586C19.7891 7.21101 19.9999 6.70239 20 6.172V4H4V6.227C4.00005 6.7244 4.18545 7.20393 4.52 7.572L9 12.5V21L11 20.3333" stroke="black" stroke-width="2" stroke-linecap="round" stroke-linejoin="round"/>
<path d="M18.5 22C18.7053 21.1513 19.1406 20.3755 19.7581 19.7581C20.3755 19.1406 21.1513 18.7053 22 18.5C21.1513 18.2947 20.3755 17.8594 19.7581 17.2419C19.1406 16.6245 18.7053 15.8487 18.5 15C18.2947 15.8487 17.8594 16.6245 17.2419 17.2419C16.6245 17.8594 15.8487 18.2947 15 18.5C15.8487 18.7053 16.6245 19.1406 17.2419 19.7581C17.8594 20.3755 18.2947 21.1513 18.5 22Z" stroke="black" stroke-width="2" stroke-linecap="round" stroke-linejoin="round"/>
</svg>

<!--
-->
<svg
  xmlns="http://www.w3.org/2000/svg"
  width="24"
  height="24"
  viewBox="0 0 24 24"
  fill="none"
  stroke="currentColor"
  stroke-width="2"
  stroke-linecap="round"
  stroke-linejoin="round"
>
  <path d="M15 12.5v-.5l4.414 -4.414c.375 -.375 .586 -.884 .586 -1.414v-2.172h-16v2.227c0 .497 .185 .977 .52 1.345l4.48 4.928v8.5l2 -.667" stroke="black" stroke-width="2" stroke-linecap="round" stroke-linejoin="round" />
  <path d="M18.5 22c.205 -.849 .641 -1.625 1.258 -2.242c.617 -.617 1.393 -1.053 2.242 -1.258c-.849 -.205 -1.625 -.641 -2.242 -1.258c-.617 -.617 -1.053 -1.393 -1.258 -2.242c-.205 .849 -.641 1.625 -1.258 2.242c-.617 .617 -1.393 1.053 -2.242 1.258c.849 .205 1.625 .641 2.242 1.258c.617 .617 1.053 1.393 1.258 2.242z" stroke="black" stroke-width="2" stroke-linecap="round" stroke-linejoin="round" />
</svg>
